shared/img/tn-taboola.svg

<?xml version="1.0" encoding="UTF-8"?>
<svg width="16px" height="13px" viewBox="0 0 16 13" version="1.1" xmlns="http://www.w3.org/2000/svg" xmlns:xlink="http://www.w3.org/1999/xlink">
    <!-- Generator: sketchtool 47.1 (45422) - http://www.bohemiancoding.com/sketch -->
    <title>0871CF42-7B4F-4390-8E43-DAF9BAF0741E</title>
    <desc>Created with sketchtool.</desc>
    <defs></defs>
    <g id="V4--RC-Updates" stroke="none" stroke-width="1" fill="none" fill-rule="evenodd">
        <g id="ASSETS--Pill-Icons" transform="translate(-180.000000, -92.000000)" fill-rule="nonzero" fill="#FFFFFF">
            <g id="taboola" transform="translate(180.000000, 92.000000)">
                <path d="M15.7726316,3.64210526 C15.619534,2.32361083 14.7267269,1.2084195 13.4736842,0.770526316 C12.6328866,0.466652398 11.7277839,0.38542524 10.8463158,0.534736842 C9.98835015,0.630642893 9.19266534,1.02923172 8.60210526,1.65894737 C8.44210526,1.83157895 8.30315789,2.02105263 8.13473684,2.23157895 C7.6841176,1.47197209 6.96410754,0.909793044 6.11789474,0.656842105 C5.36481162,0.424425228 4.56943204,0.362578353 3.78947368,0.475789474 C2.5284585,0.564001767 1.40779276,1.31164591 0.842105263,2.44210526 C0.427841996,3.30933759 0.309511369,4.28852353 0.505263158,5.22947368 C0.670358101,6.48258553 1.50698565,7.54532863 2.68631579,8 C3.58908005,8.34576309 4.57030789,8.43324254 5.52,8.25263158 C6.55415639,8.1165825 7.47711144,7.53512082 8.04631579,6.66105263 C8.07766906,6.63029786 8.11146396,6.60213544 8.14736842,6.57684211 C8.59868319,7.35054922 9.33205953,7.91944403 10.1936842,8.16421053 C11.14162,8.45086411 12.1508006,8.466906 13.1073684,8.21052632 C14.2905384,7.93260337 15.2404405,7.05306438 15.6084211,5.89473684 C15.8539072,5.17005746 15.9104268,4.39472478 15.7726316,3.64210526 Z M5.62105263,5.49894737 C5.48563123,5.98229426 5.02661527,6.30183999 4.52631579,6.26105263 C4.02576097,6.28742329 3.5755354,5.95854758 3.44842105,5.47368421 C3.21696184,4.76652812 3.21696184,4.0039982 3.44842105,3.29684211 C3.57743805,2.76492704 4.08988639,2.41843172 4.63157895,2.49684211 C5.14132002,2.484531 5.58659175,2.8393292 5.68842105,3.33894737 C5.77684211,3.66315789 5.80210526,4.00842105 5.86526316,4.38315789 C5.80727473,4.75982899 5.72571101,5.13249083 5.62105263,5.49894737 L5.62105263,5.49894737 Z M12.8252632,5.47368421 C12.7140899,5.98891628 12.2440993,6.34632354 11.7178947,6.31578947 C11.1816033,6.34006743 10.7062623,5.97332493 10.5936842,5.44842105 C10.4155474,4.82066228 10.4053839,4.15713066 10.5642105,3.52421053 C10.6019001,3.2276496 10.7565847,2.95846351 10.9938304,2.77657516 C11.2310761,2.5946868 11.5311914,2.51519292 11.8273684,2.55578947 C12.3957693,2.5962511 12.8479594,3.04844122 12.8884211,3.61684211 C12.9347368,3.87789474 12.9431579,4.14736842 12.9768421,4.50947368 C12.94859,4.83398551 12.897943,5.15615667 12.8252632,5.47368421 Z" id="Shape"></path>
                <path d="M14.6021053,8.72421053 L14.6021053,8.39578947 C10.3954455,10.0865148 5.6944305,10.0653594 1.50315789,8.33684211 C1.50315789,9.14105263 1.50315789,9.91157895 1.50315789,10.6821053 C1.50315789,10.7578947 1.61263158,10.8505263 1.69263158,10.8926316 C4.16861111,12.1110837 6.94226997,12.593332 9.68421053,12.2821053 C11.3292826,12.1251476 12.9340077,11.6804991 14.4252632,10.9684211 C14.5583993,10.924733 14.6403564,10.7911073 14.6189474,10.6526316 C14.5936842,10.0126316 14.5978947,9.36842105 14.6021053,8.72421053 Z" id="Shape"></path>
            </g>
        </g>
    </g>
</svg>

<svg width="16" height="13" xmlns="http://www.w3.org/2000/svg"><g fill-rule="nonzero" fill="#FFF"><path d="M15.773 3.642a3.465 3.465 0 0 0-2.3-2.871 5.183 5.183 0 0 0-2.627-.236 3.63 3.63 0 0 0-2.244 1.124c-.16.173-.299.362-.467.573A3.516 3.516 0 0 0 6.118.657 5.31 5.31 0 0 0 3.789.476 3.575 3.575 0 0 0 .842 2.442 4.392 4.392 0 0 0 .505 5.23 3.453 3.453 0 0 0 2.686 8a5.204 5.204 0 0 0 2.834.253A3.57 3.57 0 0 0 8.046 6.66a.813.813 0 0 1 .101-.084 3.465 3.465 0 0 0 2.047 1.587 5.314 5.314 0 0 0 2.913.047 3.453 3.453 0 0 0 2.501-2.316c.246-.725.302-1.5.165-2.253zM5.62 5.5a1.048 1.048 0 0 1-1.095.762c-.5.026-.95-.302-1.078-.787a3.499 3.499 0 0 1 0-2.177 1.061 1.061 0 0 1 1.184-.8c.51-.012.955.342 1.056.842.089.324.114.67.177 1.044-.058.377-.14.75-.244 1.116zm7.204-.025a1.07 1.07 0 0 1-1.107.842 1.099 1.099 0 0 1-1.124-.868 3.726 3.726 0 0 1-.03-1.924 1.12 1.12 0 0 1 1.263-.968c.569.04 1.021.492 1.061 1.06.047.262.055.531.089.893a7.07 7.07 0 0 1-.152.965z"/><path d="M14.602 8.724v-.328a17.368 17.368 0 0 1-13.099-.06v2.346c0 .076.11.169.19.21a14.417 14.417 0 0 0 7.991 1.39 14.114 14.114 0 0 0 4.741-1.314.286.286 0 0 0 .194-.315 42.016 42.016 0 0 1-.017-1.929z"/></g></svg>
